**kern	**kern	**dynam
*part1	*part1	*part1
*staff2	*staff1	*
*I"Piano	*	*
*clefF4	*clefG2	*
*k[]	*k[]	*
=1	=1	=1
*^	*	*
!	!	!	!LO:DY:a
4F	[2FF	4f 4a	<
4BB-X	.	4f 4g 4b-X	.
=	=	=	=
2F	2FF]	2f 2a 2cc	.
=	=	=	=
4F	[2FF	4f 4b-X 4dd	.
4BB-X	.	4g 4b- 4een	[
=	=	=	=
[2F	2FF_	[2a [2cc [2ff	.
*v	*v	*	*
=	=	=
4FF] 4F]	4a] 4cc] 4ff]	.
4r	4r	.
=||	=||	=||
!	!	!LO:DY:a
(4f	(4a 4dd	p
4d	4a 4ff	.
=	=	=
4c#X	4a 4ee	.
4A)	4cc#X) 4aa	.
=	=	=
*-	*-	*-
!!!system-decoration: {(s1,s2)}
